X: 13459
T: Flop-Eared Mule, The
R: polka
M: 2/4
K: Dmajor
|:f2 d>A|BA FD|ED/E/ FE|DF AF|
Af d>A|BA FD|ED/E/ FE|D2 D2:|
|:e2 ed/e/|fe cA|B>d cB|Ac ef|
e2 ed/e/|fe cA|B>d cB|A2 A2:|

